!!!!SEGMENT: pl-kozmzk--mzk-m-31--001-002_szymanowska-maria--vingt-exercices-et-preludes-pour-le-pianoforte-preludium-es-dur.krn
!!!cenid: 18xx:438
!!!COM: Szymanowska, Maria
!!!COM-rismID: pe140138
!!!CDT: 1789/12/14-1831/07/25
!!!CNT: Polish
!!!GTL: Vingt Exercices et Préludes pour le Pianoforte
!!!OTL: Preludium Es-dur
!!!OMV: 002
!!!PDT: 1819
!!!AGN: Secular; Prelude
!!!SMS-siglum: PL-KOZmzk
!!!SMS-shelfmark: mzk/m/31
!!!SMS-shelfwork: 001-002 G
!!!SMS-variant:
!!!SMS-altvar:
!!!NIFC-rismSourceID: 1001025323
!!!NIFC-rismChildID: 1001025325
!!!NIFC-islandoraID: pl-kozmzk:6325
!!!URL-pdf-islandora: https://repozytorium.nifc.pl/islandora/object/pl-kozmzk%3A6325/datastream/PDF/view
!!!URL-scan: https://polish.musicsources.pl/pl/lokalizacje/galeria/rekopisy/462 @EN{Scan on Polish Music Sources Website} @PL{Skany w portalu Dziedzictwo Muzyki Polskiej w otwartym dostępie}
!!!IIIF:
!!!ONB-nifc:
!!!AIN: 1 piano
!!!key: E-
!!!filter-modern: sic -sq | shed -e "s/TX(.*):t=P:/tx$1:t=P:/LG" | shed -e "s/:rj/:RJ/L" | shed -k -e "s/([^a-gA-Gn#X-])[<>]/$1/g" | shed -e "s/LO:DY:(a|b|rj)/LO:dy:$1/L" | shed -e "s/-//B" | autostem -r | modori -m
**kern	**fing	**kern	**fing	**dynam
*part1	*	*part1	*	*part1
*staff2	*	*staff1	*	*
*I"Piano	*	*I"Piano	*	*
*I'P-no	*	*I'P-no	*	*
*mI"Pianoforte	*	*mI"Pianoforte	*	*
*mI'pf	*	*mI'pf	*	*
*Ipiano	*	*Ipiano	*	*
*ICklav	*	*ICklav	*	*
*IGsolo	*	*IGsolo	*	*
*clefF4	*	*clefG2	*	*
*k[b-e-a-]	*	*k[b-e-a-]	*	*
*E-:	*	*E-:	*	*
*M4/4	*	*M4/4	*	*
*met(c)	*	*met(c)	*	*
=1	=1	=1	=1	=1
!!!OMD:
!!!OMD-mod: Allegro moderato
!	!	!LO:TX:a:B:t=Allo&colon; Moderato:mod=	!	!
8EE-/ 8E-	.	8r	.	f
*clefG2	*	*	*	*
*8va	*	*8va	*	*
16ggg\LL	.	16bbb-\LL	.	.
16fff\JJ	.	16aaa-\JJ	.	.
16eee-\LL	.	16ggg\LL	.	.
16ddd\	.	16fff\	.	.
16ccc^\	.	16eee-T\	.	.
16bb-\JJ	.	16ddd\JJ	.	.
*X8va	*	*X8va	*	*
!LO:TX:a:t=loco	!	!LO:TX:a:t=loco	!	!
16aa-\LL	.	16ccc\LL	.	.
16gg\	.	16bb-\	.	.
16ff^\	.	16aa-T\	.	.
16ee-\JJ	.	16gg\JJ	.	.
16dd\LL	.	16ff\LL	.	.
16cc\	.	16ee-\	.	.
!	!	!LO:TX:t=P:problem=diminuendolike accent	!	!
16b-^\	.	16ddt\	.	.
16a-\JJ	.	16cc\JJ	.	.
=2	=2	=2	=2	=2
16g/LL	.	16b-/LL	.	.
!	!	!LO:TX:t=P:problem=diminuendolike accent	!	!
16f^>/	.	16a-/	.	.
16e-/	.	16gt</	.	.
16d/JJ	.	16f/JJ	.	.
*clefF4	*	*	*	*
16c\LL	.	16e-/LL	.	.
16B-\	.	16d/	.	.
!	!	!LO:TX:t=P:problem=diminuendolike accent	!	!
16A-^\	.	16cT</	.	.
16G\JJ	.	16B-/JJ	.	.
16F\LL	.	16A-</LL	.	.
16E-\	.	16G</	.	.
16D\	.	16F<T/	.	.
16C\JJ	.	16E-</JJ	.	.
16BB-\LL	.	16D</LL	.	.
16AA-\	.	16C</	.	.
16GG\	.	16BB-<T/	.	.
16FF#X\JJ	.	16AAn</JJ	.	.
=3	=3	=3	=3	=3
8GG\	.	8BB-</	.	.
8r	.	(16g/LL	1	.
!	!	!LO:TX:b:t=dolce	!	!
.	.	16a-/JJ	2	.
4r	.	16b-\LL	3	.
.	.	16cc\	1	.
.	.	16dd\	2	.
.	.	16ee-\JJ	3	.
2r	.	16ff\LL	1	.
.	.	16ff#X\	4	.
.	.	16gg\	5	.
.	.	16dd\JJ	2	.
.	.	16ffn\LL	4	.
.	.	16ee-\	3	.
.	.	16bn\	1	.
.	.	16dd\JJ)	5	.
=4	=4	=4	=4	=4
!!LO:LB:g=original
4r	.	16cc/LL	4	.
.	.	16g/	2	.
.	.	16b-X/	4	.
.	.	16a-/JJ	3	.
8r	.	16g/LL	2	.
.	.	16f/	1	.
16r	.	16dd/	5	.
!	!	!LO:TX:t=P:problem=diminuendolike accent	!	!
(16An^\	.	16g-X/JJ 16cc	.	.
8B-\)	.	8gn/ 8b-	.	.
8r	.	8r	.	.
!LO:SIC:s=8BB-	!	!LO:SIC:s=8A-< 8d<	!	!
8BB-;<\	.	8A-<;>/ 8d<	.	.
!LO:SIC:s=8r;	!	!LO:SIC:s=8r;	!	!
8r	.	8r	.	.
=5	=5	=5	=5	=5
!LO:TX:a:t=P:problem=mixed beam	!	!	!	!
8EE-`/L	.	16g/LL	.	p
.	.	16b-/	.	.
8E-`\J 8G\	.	16a-T</	.	.
.	.	16g/JJ	.	.
8BB-`\L	.	16a-/LL	.	.
.	.	16b-/	.	.
8E-`\J 8G	.	16cc/	.	.
.	.	16dd/JJ	.	.
!LO:TX:a:t=P:problem=mixed beam	!	!	!	!
8GG/L	.	16ee-\LL	.	.
.	.	16ff\	.	.
8E-`\J 8G\	.	16gg\	.	.
.	.	16aa-\JJ	.	.
8BB-\L	.	16aan\LL	.	.
.	.	16bb-\	.	.
8E-`\J 8G	.	16ccc\	.	.
.	.	16bb-\JJ	.	.
=6	=6	=6	=6	=6
!!LO:LB:g=original
!	!	!LO:TX:t=P:problem=diminuendolike accent	!	!
8BBB-/	.	16aa-X^<T\LL	.	.
.	.	16gg\	.	.
!LO:TX:a:t=P:problem=mixed beam	!	!	!	!
8F\L 8A-	.	16ff\	.	.
.	.	16ee-\JJ	.	.
!	!	!LO:TX:t=P:problem=diminuendolike accent	!	!
8FF/	.	16dd^<t\LL	.	.
.	.	16cc\	.	.
8F\J 8A-	.	16b-\	.	.
.	.	16an\JJ	.	.
!LO:TX:a:t=P:problem=mixed beam	!	!	!	!
!	!	!LO:TX:t=P:problem=diminuendolike accent	!	!
8BB-\L	.	16a-X^T/LL	.	.
.	.	16g/	.	.
8F\ 8A-	.	16f/	.	.
.	.	16e-/JJ	.	.
8FF/	.	16d^t/LL	.	.
.	.	16c/	.	.
8F\J 8A-	.	16B-/	.	.
.	.	16d/JJ	.	.
=7	=7	=7	=7	=7
!!LO:LB:g=original
!LO:TX:a:t=P:problem=mixed beam	!	!	!	!
8EE-/L	.	16e-/LL	.	.
.	.	16b-/	.	.
8E-\ 8G	.	16a-T</	.	.
.	.	16g/JJ	.	.
8BB-\	.	16a-/LL	.	.
.	.	16b-/	.	.
8E-\J 8G	.	16cc/	.	.
.	.	16dd/JJ	.	.
8GG\L	.	16ee-\LL	.	.
.	.	16ff\	.	.
8E-\ 8G	.	16gg\	.	.
.	.	16aa-\JJ	.	.
8BB-\	.	16aan\LL	.	.
.	.	16bb-\	.	.
!	!	!LO:TX:t=P:problem=diminuendolike accent	!	!
8E-\J 8G	.	16.ggg^\	.	.
.	.	32eee-\JJk	.	.
=8	=8	=8	=8	=8
8BBB-/	.	16dddt\LL	.	.
.	.	16ccc\	.	.
!LO:TX:a:t=P:problem=mixed beam	!	!	!	!
8F\L 8A-	.	16bb-\	.	.
.	.	16aan\JJ	.	.
8FF/	.	16aa-XT\LL	.	.
.	.	16gg\	.	.
8F\J 8A-	.	16ff\	.	.
.	.	16ee-\JJ	.	.
!LO:TX:a:t=P:problem=mixed beam	!	!	!	!
8BB-\L	.	16ddt\LL	.	.
.	.	16cc\	.	.
8F\ 8A-	.	16b-X\	.	.
.	.	16an\JJ	.	.
8FF/	.	16a-XT</LL	.	.
.	.	16g/	.	.
8D\J 8A-	.	16f/	.	.
.	.	16b-/JJ	.	.
=9	=9	=9	=9	=9
!LO:TX:a:t=P:problem=mixed beam	!	!	!	!
!	!	!LO:TX:t=P:problem=diminuendolike accent	!	!
8EE-/L	.	16gt/LL	.	.
.	.	16f^/	.	.
8E-\J 8G	.	16e-/	.	.
.	.	16b-/JJ	.	.
!LO:TX:a:t=P:problem=mixed beam	!	!	!	!
!	!	!LO:TX:t=P:problem=diminuendolike accent	!	!
8DD/L	.	16a-^T/LL	.	.
.	.	16g/	.	.
8A-\J 8B-	.	16f/	.	.
.	.	16b-/JJ	.	.
!LO:TX:a:t=P:problem=mixed beam	!	!	!	!
!	!	!LO:TX:t=P:problem=diminuendolike accent	!	!
8EE-/L	.	16g^t/LL	.	.
.	.	16f/	.	.
8G\J 8B-	.	16e-/	.	.
.	.	16b-/JJ	.	.
!LO:TX:a:t=P:problem=mixed beam	!	!	!	!
!	!	!LO:TX:t=P:problem=diminuendolike accent	!	!
8EEn/L	.	16g^t/LL	.	.
.	.	16f/	.	.
8G\J 8c	.	16en/	.	.
.	.	16cc/JJ	.	.
=10	=10	=10	=10	=10
!!LO:LB:g=original
!LO:TX:a:t=P:problem=mixed beam	!	!	!	!
8FF/L	.	16a-T</LL	.	.
.	.	16g/	.	.
8A-\J 8c	.	16f/	.	.
.	.	16cc/JJ	.	.
!LO:TX:a:t=P:problem=mixed beam	!	!	!	!
8EEn/L	.	16b-T</LL	.	.
.	.	16a-/	.	.
8B-\J 8c	.	16g/	.	.
.	.	16cc/JJ	.	.
!LO:TX:a:t=P:problem=mixed beam	!	!	!	!
8FF/L	.	16a-T</LL	.	.
.	.	16g/	.	.
8A-\J 8c	.	16f/	.	.
.	.	16cc/JJ	.	.
!LO:TX:a:t=P:problem=mixed beam	!	!	!	!
8FF/L	.	16a-T</LL	.	.
.	.	16g/	.	.
8A-\J 8d-X	.	16f/	.	.
.	.	16dd-X/JJ	.	.
=11	=11	=11	=11	=11
!LO:TX:a:t=P:problem=mixed beam	!	!	!	!
!	!	!LO:SIC:o:=:v:crescendo  sylabami	!	!
8GG/L	.	16b-T\LL	.	<
.	.	16a-\	.	.
8B-\J 8e-	.	16g\	.	.
.	.	16ee-\JJ	.	.
!LO:TX:a:t=P:problem=mixed beam	!	!	!	!
8AA-/L	.	16ccT\LL	.	.
.	.	16b-\	.	.
8c\J 8f	.	16a-\	.	.
.	.	16ff\JJ	.	.
!LO:TX:a:t=P:problem=mixed beam	!	!	!	!
8BB-/L	.	16dd-XT\LL	.	.
.	.	16cc\	.	.
8d-X\J 8g	.	16b-\	.	.
.	.	16gg\JJ	.	.
!LO:TX:a:t=P:problem=mixed beam	!	!	!	!
8C/L	.	16ee-T\LL	.	.
.	.	16dd-\	.	.
8e-\J 8a-	.	16cc\	.	.
.	.	16aa-\JJ	.	[
=12	=12	=12	=12	=12
!!LO:LB:g=original
!LO:TX:a:t=P:problem=mixed beam	!	!	!	!
8d-X`\L 8f	.	16een\LL	1	.
.	.	16gg\	5	.
8DD-X^/J	.	16ff\	4	.
.	.	16dd-X\JJ	2	.
4r	.	16cc\LL	1	.
.	.	16ee-X\	4	.
.	.	16dd-\	3	.
.	.	16b-\JJ	2	.
!LO:TX:a:t=P:problem=mixed beam	!	!	!	!
8d-`\L 8f	.	16an/LL	1	.
.	.	16cc/	5	.
8DD-^/J	.	16b-/	4	.
.	.	16en/JJ	1	.
4r	.	16g/LL	5	.
.	.	16f/	4	.
.	.	16e-X/	3	.
.	.	16d-X/JJ	2	.
=13	=13	=13	=13	=13
!!LO:LB:g=original
!LO:TX:a:t=P:problem=mixed beam	!	!LO:TX:a:t=P:problem=mixed beam	!	!
8EE-/L	.	16c/KL	.	.
!	!	!LO:TX:t=P:problem=diminuendolike accent	!	!
.	.	8fff^\	.	.
8E-\J 8A- 8c	.	.	.	.
.	.	16eee-\Jk	.	.
8E-\L 8A- 8c	.	16ddd-XT\LL	.	f
.	.	16ccc\	.	.
8E-\J 8A- 8c	.	16bb-T\	.	.
.	.	16aa-\JJ	.	.
!LO:TX:a:t=P:problem=mixed beam	!	!	!	!
8EE-/L	.	16ggt\LL	.	.
.	.	16ff\	.	.
8E-\J 8B- 8d-X	.	16ee-T\	.	.
.	.	16dd-X\JJ	.	.
8E-\L 8B- 8d-	.	16cct\LL	.	.
.	.	16b-\	.	.
8E-\J 8B- 8d-	.	16a-T\	.	.
.	.	16g\JJ	.	.
=14	=14	=14	=14	=14
8AA-\L	.	16a-\LL	.	.
.	.	16ee-\	.	.
8A-\J 8c	.	16dd-XT\	.	p
.	.	16cc\JJ	.	.
!	!	!LO:TX:b:t=le-gier-mente:mod=leggiermente	!	!
8E-\L	.	16dd-X\LL	.	.
.	.	16ee-\	.	.
8A-\J 8c	.	16ff\	.	.
.	.	16gg\JJ	.	.
8C\L	.	16aa-\LL	.	.
.	.	16bb-\	.	.
8A-\J 8c	.	16ccc\	.	.
.	.	16eee-X\JJ	.	.
8E-\L	.	16dddn\LL	.	.
.	.	16eee-\	.	.
8A-\J 8c	.	16fff\	.	.
.	.	16eee-\JJ	.	.
=15	=15	=15	=15	=15
!LO:TX:a:t=P:problem=mixed beam	!	!	!	!
8EE-/L	.	16ddd-XT\LL	.	.
.	.	16ccc\	.	.
8F\J 8d-X	.	16bb-\	.	.
.	.	16aa-\JJ	.	.
8BB-\L	.	16ggt\LL	.	.
.	.	16ff\	.	.
8G\J 8d-	.	16ee-\	.	.
.	.	16ddn\JJ	.	.
8E-\L	.	16dd-XT\LL	.	.
.	.	16cc\	.	.
8G\J 8d-	.	16b-\	.	.
.	.	16a-\JJ	.	.
8BB-\L	.	16gt/LL	.	.
.	.	16f/	.	.
8G\J 8d-	.	16e-/	.	.
.	.	16g/JJ	.	.
=16	=16	=16	=16	=16
!!LO:LB:g=original
8AA-\L	.	16a-\LL	.	.
.	.	16ee-\	.	.
8A-\ 8c	.	16dd-XT\	.	.
.	.	16cc\JJ	.	.
8E-\	.	16dd-\LL	.	.
.	.	16ee-\	.	.
8A-\J 8c	.	16ff\	.	.
.	.	16gg\JJ	.	.
8C\L	.	16aa-\LL	.	.
.	.	16bb-\	.	.
8A-\ 8c	.	16ccc\	.	.
!	!	!LO:SIC:s:o=:v:=ddd-	!	!
.	.	16ddd\JJ	.	.
8E-\	.	16dddn\LL	.	.
.	.	16eee-\	.	.
*	*	*8va	*	*
8A-\J 8c	.	16cccc\	.	.
.	.	16aaa-\JJ	.	.
=17	=17	=17	=17	=17
!LO:TX:a:t=P:problem=mixed beam	!	!	!	!
8EE-/L	.	16gggt\LL	.	.
.	.	16fff\	.	.
8G\J 8d-X	.	16eee-\	.	.
.	.	16dddn\JJ	.	.
!LO:TX:a:t=P:problem=mixed beam	!	!	!	!
8BB-/L	.	16ddd-XT\LL	.	.
.	.	16ccc\	.	.
8G\J 8d-	.	16bb-\	.	.
.	.	16aa-\JJ	.	.
*	*	*X8va	*	*
!	!	!LO:TX:a:t=loco	!	!
8E-\L	.	16ggt<\LL	.	.
.	.	16ff\	.	.
8G\J 8d-	.	16ee-\	.	.
.	.	16ddn\JJ	.	.
8BB-\L	.	16dd-XT\LL	.	.
.	.	16cc\	.	.
8G\J 8d-	.	16b-\	.	.
.	.	16ee-\JJ	.	.
=18	=18	=18	=18	=18
!!LO:LB:g=original
8AA-/	.	16cc\LL	.	.
.	.	16ff\	.	.
*clefG2	*	*	*	*
!	!	!LO:TX:t=P:problem=diminuendolike accent	!	!
8an^>/L	.	16ee-T\	.	.
.	.	16ccc\JJ	.	.
8b-/	.	16dd\LL	.	.
.	.	16ee-\	.	.
!	!	!LO:TX:t=P:problem=diminuendolike accent	!	!
8g^>/J	.	16dd-XT\	.	.
.	.	16bb-\JJ	.	.
8a-X/L	.	16cc\LL	.	.
.	.	16dd-X\	.	.
!	!	!LO:TX:t=P:problem=diminuendolike accent	!	!
8f^>/	.	16cct\	.	.
.	.	16aa-\JJ	.	.
8g/	.	16bn\LL	.	.
.	.	16cc\	.	.
!	!	!LO:TX:t=P:problem=diminuendolike accent	!	!
8en^>/J	.	16b-XT\	.	.
.	.	16gg-X\JJ	.	.
=19	=19	=19	=19	=19
!!LO:PB:g=original
8f/L	.	16an/LL	.	.
.	.	16b-/	.	.
!LO:TX:t=P:problem=diminuendolike accent	!	!	!	!
8d^>/	.	16a-XT</	.	.
.	.	16ff/JJ	.	.
8e-X/	.	16g/LL	.	.
.	.	16a-/	.	.
!LO:TX:t=P:problem=diminuendolike accent	!	!	!	!
8c^>/J	.	16gt</	.	.
.	.	16ee-/JJ	.	.
8d/L	.	16f#X/LL	.	.
.	.	16g/	.	.
!LO:TX:t=P:problem=diminuendolike accent	!	!	!	!
8Bn^>/	.	16fnT</	.	.
.	.	16dd/JJ	.	.
8c/	.	16en/LL	.	.
.	.	16f/	.	.
!LO:TX:t=P:problem=diminuendolike accent	!	!	!	!
8An^>/J	.	16e-XT</	.	.
.	.	16cc/JJ	.	.
=20	=20	=20	=20	=20
8B-/	.	16d/LL	.	.
.	.	16b-/	.	.
*clefF4	*	*	*	*
4A-X\ 4B-	.	16fT</	.	rfz
.	.	16dd/JJ	.	.
.	.	16b-\LL	.	.
.	.	16ff\	.	.
8A-\ 8B-	.	16ddt\	.	.
.	.	16bb-\JJ	.	.
8G\ 8B-	.	16g\LL	.	.
.	.	16ee-\	.	.
4G\ 4B-	.	16b-T\	.	rfz
.	.	16gg\JJ	.	.
.	.	16ee-\LL	.	.
.	.	16bb-\	.	.
8G\ 8B-	.	16ggt\	.	.
.	.	16eee-\JJ	.	.
=21	=21	=21	=21	=21
8A-\	.	(16bbn\LL	4	.
.	.	16ccc\)	5	.
4A-\	.	(16gg\	1	.
.	.	16aa-\JJ)	4	.
.	.	(16een\LL	1	.
.	.	16ff\)	4	.
(8An\	.	(16cc\	1	.
.	.	16ff\JJ)	4	.
!	!	!LO:SIC:v:s=8g 8ee-	!	!
8B-X\)	.	8g\ 8ee	1 3	.
8r	.	8r	.	.
8BB-\ 8F	.	8A-X</ 8d<	.	.
8r;<	.	8r<c;	.	.
=22	=22	=22	=22	=22
8EE-\L	.	16g/LL	.	p
.	.	16b-/	.	.
8E-\J 8G	.	16a-T</	.	.
.	.	16g/JJ	.	.
8BB-\L	.	16a-/LL	.	.
.	.	16b-/	.	.
8E-\J 8G	.	16cc/	.	.
.	.	16dd/JJ	.	.
8GG\L	.	16ee-\LL	.	.
.	.	16ff\	.	.
8E-\J 8G	.	16gg\	.	.
.	.	16aa-\JJ	.	.
8BB-\L	.	16aan\LL	.	.
.	.	16bb-\	.	.
8E-\J 8G	.	16ccc\	.	.
.	.	16bb-\JJ	.	.
=23	=23	=23	=23	=23
!!LO:LB:g=original
8BBB-/	.	(16ff\LL	.	f
.	.	16aaa-\)	.	.
!LO:TX:a:t=P:problem=mixed beam	!	!	!	!
8F\L 8A-	.	(16dd\	.	.
.	.	16fff\JJ)	.	.
8FF/	.	(16b-\LL	.	.
.	.	16ddd\)	.	.
8F\J 8A-	.	(16a-\	.	.
.	.	16bb-\JJ)	.	.
!LO:TX:a:t=P:problem=mixed beam	!	!	!	!
8BB-\L	.	16f\LL	.	.
.	.	16aa-\	.	.
8F\ 8A-	.	16d\	.	.
.	.	16ff\JJ	.	.
8FF/	.	16B-/LL	.	.
.	.	16dd/	.	.
8F\J 8A-	.	16B-/	.	.
.	.	16b-/JJ	.	.
=24	=24	=24	=24	=24
8EE-\L	.	16g/LL	.	p
.	.	16b-/	.	.
8E-\J 8G	.	16a-T</	.	.
.	.	16g/JJ	.	.
8BB-\L	.	16a-/LL	.	.
.	.	16b-/	.	.
8E-\J 8G	.	16cc/	.	.
.	.	16dd/JJ	.	.
8GG\L	.	16ee-\LL	.	.
.	.	16ff\	.	.
8E-\J 8G	.	16gg\	.	.
.	.	16aa-\JJ	.	.
8BB-\L	.	16aan\LL	.	.
.	.	16bb-\	.	.
8E-\J 8G	.	16ggg\	.	.
.	.	16eee-\JJ	.	.
=25	=25	=25	=25	=25
8BBB-/	.	16aa-X\LL	.	f
.	.	16cccc-X\	.	.
!LO:TX:a:t=P:problem=mixed beam	!	!	!	!
8F\L 8A-	.	16ff\	.	.
.	.	16aaa-\JJ	.	.
8FF/	.	16dd\LL	.	.
.	.	16fff\	.	.
8F\J 8A-	.	16cc-X\	.	.
.	.	16ddd\JJ	.	.
!LO:TX:a:t=P:problem=mixed beam	!	!	!	!
8BB-\L	.	16a-\LL	.	.
.	.	16ccc-X\	.	.
8F\ 8A-	.	16f\	.	.
.	.	16aa-\JJ	.	.
!LO:TX:a:t=P:problem=mixed beam	!	!	!	!
8FF/	.	16d/LL	.	.
.	.	16ff\	.	.
8F\J 8A-	.	16B-/	.	.
.	.	16dd\JJ	.	.
=26	=26	=26	=26	=26
8E-\ 8G	.	16g/LL 16ee-	.	.
.	.	16b-/	.	.
8r	.	16a-T</	.	.
.	.	16g/JJ	.	.
8B-\L 8f	.	16a-/LL	.	.
.	.	16b-/	.	.
8B-\J 8f	.	16a-/ 16dd	.	sf
.	.	16b-/JJ	.	.
8e-\	.	16g/ 16ee-/	.	.
.	.	16bb-\LL	.	.
8r	.	16aa-T\	.	.
.	.	16gg\JJ	.	.
*clefG2	*	*	*	*
8b-\L 8ff	.	16aa-\LL	.	.
.	.	16bb-\	.	.
8b-\J 8ff	.	16aa-\ 16ddd	.	sf
.	.	16bb-\JJ	.	.
=27	=27	=27	=27	=27
*	*	*^	*	*
!!LO:LB:g=originalx
8ee-`\	.	8eee-/	8gg\	.	.
!	!	!LO:TX:t=P:problem=diminuendolike accent	!	!	!
(8g/L	.	16bbn/LL	8ff^\L	.	.
.	.	16gg/JJ	.	.	.
8cc/J)	.	8ccc/L	8een\	.	.
!	!	!LO:TX:t=P:problem=diminuendolike accent	!	!	!
(8f/L	.	16aan/L	8ee-X^\J	.	.
.	.	16ff/JJ	.	.	.
8b-/J)	.	8bb-X/L	8dd\L	.	.
!	!	!LO:TX:t=P:problem=diminuendolike accent	!	!	!
(8e-/L	.	16gg/L	8dd-X^\	.	.
.	.	16ee-/JJ	.	.	.
8a-X/J)	.	8aa-X/L	8cc\	.	.
!	!	!LO:TX:t=P:problem=diminuendolike accent	!	!	!
(8d/	.	16ff#X/L	8cc^\J	.	.
!	!	!LO:SIC:s:o=:v:dd	!	!	!
.	.	16dd-/JJ	.	.	.
=28	=28	=28	=28	=28	=28
8g/)	.	8gg/L	8bn\L	.	.
!	!	!LO:TX:t=P:problem=diminuendolike accent	!	!	!
(8c/L	.	16een/L	8b-X^\	.	.
.	.	16cc/JJ	.	.	.
8f/J)	.	8ff/L	8an\	.	.
!	!	!LO:TX:t=P:problem=diminuendolike accent	!	!	!
(8B-/L	.	16dd/L	8a-X^\J	.	.
.	.	16b-/JJ	.	.	.
!LO:TX:a:t=ratten&colon;:mod=rallent.	!	!	!	!	!
!LO:SIC:s=8e-J)	!	!	!	!	!
8d/J)	.	8ee-X/L	8g\L	.	<
*clefF4	*	*	*	*	*
8AAn\L 8An	.	8cc/ 8ee-	8g-X\	.	.
8BB-\ 8B-	.	8ee-/	8g-\ 8b-	.	.
8C-X\J 8c-X	.	8ee-/J	8g-\J 8an	.	.
*	*	*v	*v	*	*
=29	=29	=29	=29	=29
!	!	!LO:TX:b:t=a tempo	!	!
8BB-\ 8B-	.	8gn/ 8b- 8ee-	.	[
*clefG2	*	*	*	*
*8va	*	*8va	*	*
16ggg\LL	.	16bbb-\LL	.	.
16fff\JJ	.	16aaa-\JJ	.	.
16eee-\LL	.	16ggg\LL	.	.
16ddd\	.	16fff\	.	.
16ccc\	.	16eee-T\	.	.
16bb-\JJ	.	16ddd\JJ	.	.
*X8va	*	*X8va	*	*
!LO:TX:a:t=loco	!	!LO:TX:a:t=loco	!	!
16aa-\LL	.	16ccc\LL	.	.
16gg\	.	16bb-\	.	.
16ff\	.	16aa-T\	.	.
16ee-\JJ	.	16gg\JJ	.	.
16dd\LL	.	16ff\LL	.	.
16cc\	.	16ee-\	.	.
16b-\	.	16ddt\	.	.
16a-\JJ	.	16cc\JJ	.	.
=30	=30	=30	=30	=30
!!LO:LB:g=original
16g/LL	.	16b-/LL	.	.
16f/	.	16a-/	.	.
16e-/	.	16gt</	.	.
16d/JJ	.	16f/JJ	.	.
*clefF4	*	*	*	*
16c\LL	.	16e-/LL	.	.
16B-\	.	16d/	.	.
16A-\	.	16cT</	.	.
16G\JJ	.	16B-/JJ	.	.
16F\LL	.	16A-</LL	.	.
16E-\	.	16G</	.	.
16D\	.	16F<T/	.	.
16C\JJ	.	16E-</JJ	.	.
16BB-\LL	.	16D</LL	.	.
16AA-\	.	16C</	.	.
16GG\	.	16BB-<T/	.	.
16FF#X\JJ	.	16AAn</JJ	.	.
=31	=31	=31	=31	=31
8GG\	.	8BB-</	.	.
8r	.	(16g/LL	.	.
.	.	16a-/JJ	.	.
4r	.	16b-\LL	.	.
.	.	16cc\	.	.
.	.	16dd\	.	.
.	.	16ee-\JJ	.	.
2r	.	16ff\LL	.	.
.	.	16ff#X\	.	.
.	.	16gg\	.	.
.	.	16dd\JJ	.	.
.	.	16ffn\LL	.	.
.	.	16ee-\	.	.
.	.	16bn\	.	.
.	.	16dd\JJ)	.	.
=32	=32	=32	=32	=32
4r	.	16cc/LL	.	.
.	.	16g/	.	.
.	.	16b-X/	.	.
.	.	16a-/JJ	.	.
8r	.	16g/LL	.	.
.	.	16f/	.	.
16r	.	16dd/	.	.
!LO:TX:t=P:problem=diminuendolike accent	!	!	!	!
(16An^\	.	16g-X/JJ 16cc	.	.
8B-\)	.	8gn/ 8b-	.	.
8ryy	.	8ryy	.	.
8BB-\	.	8A-</ 8d<	.	.
8r;<	.	8r;	.	.
=33	=33	=33	=33	=33
!LO:TX:a:t=P:problem=mixed beam	!	!	!	!
8EE-`/L	.	16g/LL	.	p
.	.	16b-/	.	.
8E-`\J 8G\	.	16a-T</	.	.
.	.	16g/JJ	.	.
8BB-`\L	.	16a-/LL	.	.
.	.	16b-/	.	.
8E-`\J 8G	.	16cc/	.	.
.	.	16dd/JJ	.	.
!LO:TX:a:t=P:problem=mixed beam	!	!	!	!
8GG/L	.	16ee-\LL	.	.
.	.	16ff\	.	.
8E-`\J 8G\	.	16gg\	.	.
.	.	16aa-\JJ	.	.
8BB-\L	.	16aan\LL	.	.
.	.	16bb-\	.	.
8E-`\J 8G	.	16ccc\	.	.
.	.	16bb-\JJ	.	.
=34	=34	=34	=34	=34
!!LO:LB:g=originalx
!	!	!LO:TX:t=P:problem=diminuendolike accent	!	!
8BBB-/	.	16aa-X^<T\LL	.	.
.	.	16gg\	.	.
!LO:TX:a:t=P:problem=mixed beam	!	!	!	!
8F\L 8A-	.	16ff\	.	.
.	.	16ee-\JJ	.	.
!	!	!LO:TX:t=P:problem=diminuendolike accent	!	!
8FF/	.	16dd^<t\LL	.	.
.	.	16cc\	.	.
8F\J 8A-	.	16b-\	.	.
.	.	16an\JJ	.	.
!	!	!LO:TX:t=P:problem=diminuendolike accent	!	!
8BB-\L	.	16a-X^<T/LL	.	.
.	.	16g/	.	.
8F\J 8A-	.	16f/	.	.
.	.	16e-/JJ	.	.
!LO:TX:a:t=P:problem=mixed beam	!	!LO:TX:t=P:problem=diminuendolike accent	!	!
8FF/L	.	16d^<t/LL	.	.
.	.	16c/	.	.
8F\J 8A-	.	16B-/	.	.
.	.	16d/JJ	.	.
=35	=35	=35	=35	=35
!LO:TX:a:t=P:problem=mixed beam	!	!	!	!
8EE-/L	.	16e-/LL	.	.
.	.	16b-/	.	.
8E-\J 8G	.	16a-T</	.	.
.	.	16g/JJ	.	.
8BB-\L	.	16a-/LL	.	.
.	.	16b-/	.	.
8E-\J 8G	.	16cc/	.	.
.	.	16dd/JJ	.	.
!LO:TX:a:t=P:problem=mixed beam	!	!	!	!
8GG/L	.	16ee-\LL	.	.
.	.	16ff\	.	.
8E-\J 8G	.	16gg\	.	.
.	.	16aa-\JJ	.	.
8BB-\L	.	16aan\LL	.	.
.	.	16bb-\	.	.
8E-\J 8G	.	16ggg\	.	.
.	.	16eee-\JJ	.	.
=36	=36	=36	=36	=36
8BBB-/	.	16aa-X\LL	.	.
.	.	16cccc-X\	.	.
!LO:TX:a:t=P:problem=mixed beam	!	!	!	!
8F\L 8A-	.	16ff\	.	.
.	.	16aaa-\JJ	.	.
8FF/	.	16dd\LL	.	.
.	.	16fff\	.	.
8F\J 8A-	.	16cc-X\	.	.
.	.	16ddd\JJ	.	.
!LO:TX:a:t=P:problem=mixed beam	!	!	!	!
8BB-\L	.	16a-\LL	.	.
.	.	16ccc-X\	.	.
8F\ 8A-	.	16f\	.	.
.	.	16aa-\JJ	.	.
8FF/	.	16d/LL	.	.
.	.	16ff/	.	.
8F\J 8A-	.	16B-/	.	.
.	.	16dd/JJ	.	.
=37	=37	=37	=37	=37
!!LO:LB:g=original
8E-\ 8G	.	16g/LL 16ee-	.	.
.	.	16b-/	.	.
8r	.	16a-T</	.	.
.	.	16g/JJ	.	.
8B-\L 8f	.	16a-/LL	.	rfz
.	.	16b-/	.	.
8B-\J 8f	.	16a-/ 16dd	.	.
.	.	16b-/JJ	.	.
8e-\	.	16g/ 16ee-	.	.
.	.	16bb-\LL	.	.
8r	.	16aa-T\	.	.
.	.	16gg\JJ	.	.
*clefG2	*	*	*	*
8b-\L 8ff	.	16aa-\LL	.	.
.	.	16bb-\	.	.
8b-\J 8ff	.	16aa-\ 16ddd	.	.
.	.	16bb-\JJ	.	.
=38	=38	=38	=38	=38
8ee-\	.	16gg\ 16eee-	.	.
.	.	16b-/LL	.	.
8r	.	16a-T</	.	.
.	.	16g/JJ	.	.
*clefF4	*	*	*	*
8B-\L 8f	.	16a-\LL	.	.
.	.	16b-\	.	.
8B-\J 8f	.	16a-\ 16dd	.	.
!	!	!LO:TX:a:t=di-mi-nu-en-do:mod=	!	!
.	.	16b-\JJ	.	>
8E-\	.	16g\ 16ee-	.	.
.	.	16B-</LL	.	.
8r	.	16A-<T/	.	.
.	.	16G</JJ	.	.
8BB-\L 8F	.	16A<-/LL	.	.
.	.	16B-</	.	.
8BB-\J 8F	.	16A-</ 16d<	.	.
.	.	16B-</JJ	.	.
=39	=39	=39	=39	=39
!LO:N:vis=2	!	!	!	!
8EE-\L	.	16G/LL 16e-	.	.
.	.	16G/	.	.
8E-\	.	16A-T</	.	.
.	.	16G/JJ	.	.
8E-\	.	16g/LL	.	.
.	.	16G/	.	.
8E-\J	.	16A-T</	.	.
.	.	16G/JJ	.	.
!LO:N:vis=2	!	!	!	!
8EE-\L	.	16e-/LL	.	.
.	.	16G/	.	.
8E-\	.	16A-T</	.	.
.	.	16G/JJ	.	.
8E-\	.	16g/LL	.	.
.	.	16G/	.	]
8E-\J	.	16A-T</	.	.
.	.	16G/JJ	.	.
=40	=40	=40	=40	=40
1EE-;< 1E-	.	1G; 1B- 1e-	.	.
!LO:TX:b:t=3043:mod=	!	!	!	!
==	==	==	==	==
*-	*-	*-	*-	*-
!!!system-decoration: {(s1,s2)}
!!!RDF**kern: > = above
!!!RDF**kern: < = below
!!!EED: Leszek Kubiak
!!!EEV: 2020-07-17
!!!ENC: Marcin Jachim
!!!END: 2020-06-15
!!!ENC-modern: Andrzej Borzym
!!!END-modern: 2022-08-30
!!!YEC: Copyright 2022 Narodowy Instytut Fryderyka Chopina (https://polishscores.org)
!!!YEM: License CC-BY-4.0 (https://creativecommons.org/licenses/by/4.0)
